archdroid-icon-theme/Archdroid-Amber/emblems/scalable/emblem-widget.svg

<svg fill="#212121" height="48" viewBox="0 0 48 48" width="48" xmlns="http://www.w3.org/2000/svg"><path d="m26 26v16h16v-16zm-20 16h16v-16h-16zm0-36v16h16v-16zm27.31-2.63-11.31 11.32 11.31 11.31 11.31-11.31z" fill="#212121"/></svg>

<svg fill="#212121" height="48" viewBox="0 0 48 48" width="48" xmlns="http://www.w3.org/2000/svg"><path d="M26 26v16h16V26H26zM6 42h16V26H6v16zM6 6v16h16V6H6zm27.31-2.63L22 14.69 33.31 26l11.31-11.31L33.31 3.37z"/></svg>
